openmetadata-ui/src/main/resources/ui/src/assets/svg/column-profile.svg

<svg width="16" height="14" viewBox="0 0 16 14" fill="none" xmlns="http://www.w3.org/2000/svg">
<path d="M14.873 2.04878H11.5161V1.27085C11.5158 1.04473 11.4255 0.827933 11.2648 0.668039C11.1041 0.508144 10.8863 0.41821 10.6591 0.417969H5.34088C5.11368 0.418227 4.89586 0.508167 4.73521 0.668058C4.57455 0.827949 4.48418 1.04473 4.48393 1.27085V2.04878H1.12692C0.960705 2.04895 0.801345 2.11474 0.683811 2.23171C0.566278 2.34869 0.500172 2.50729 0.5 2.67272V10.0985C0.500168 10.264 0.566269 10.4226 0.6838 10.5396C0.801332 10.6566 0.960694 10.7224 1.12692 10.7226H6.96023V12.3005L5.32194 12.9419C5.26906 12.9626 5.22661 13.0034 5.20394 13.0553C5.18126 13.1071 5.18021 13.1658 5.20102 13.2184C5.22182 13.2711 5.26279 13.3133 5.31489 13.3359C5.367 13.3585 5.42598 13.3595 5.47886 13.3388L7.62523 12.4985C7.98901 12.3326 8.40005 12.4938 8.74093 12.6419C8.74356 12.6429 10.5735 13.3537 10.5997 13.3537C10.6491 13.3528 10.6967 13.3351 10.7345 13.3033C10.7724 13.2716 10.798 13.2279 10.8072 13.1796C10.8164 13.1312 10.8086 13.0812 10.7851 13.0379C10.7616 12.9946 10.7238 12.9607 10.6781 12.9419L9.03974 12.3005V10.7226H14.873C15.0392 10.7224 15.1986 10.6566 15.3162 10.5396C15.4337 10.4226 15.4998 10.264 15.5 10.0985V2.67272C15.4998 2.50727 15.4337 2.34866 15.3161 2.23168C15.1986 2.11471 15.0392 2.04893 14.873 2.04878ZM11.5161 4.31342L13.1457 4.30722L13.1534 8.85711H11.5161V4.31342ZM4.9124 1.27085C4.91252 1.15779 4.9577 1.04939 5.03803 0.969437C5.11836 0.889488 5.22728 0.844523 5.34088 0.84441H10.6591C10.7727 0.84454 10.8816 0.88951 10.9619 0.969456C11.0423 1.0494 11.0875 1.15779 11.0876 1.27085V8.85711H4.9124V1.27085ZM2.85433 8.86492L2.84649 4.31514H4.48393V8.8588L2.85433 8.86492ZM8.61128 12.1328C8.41911 12.0466 8.21075 12.0021 8 12.0021C7.78924 12.0021 7.58088 12.0467 7.38872 12.1328V10.7226H8.61128V12.1328ZM15.0715 10.0985C15.0715 10.1509 15.0505 10.2011 15.0133 10.2382C14.9761 10.2752 14.9256 10.2961 14.873 10.2961H1.12692C1.07429 10.2961 1.02384 10.2752 0.986637 10.2382C0.949433 10.2011 0.928517 10.1509 0.928479 10.0985V2.67272C0.928538 2.62036 0.949465 2.57015 0.986667 2.53313C1.02387 2.4961 1.07431 2.47528 1.12692 2.47522H4.48393V3.88869H2.84649C2.73499 3.8888 2.62808 3.93293 2.54922 4.01139C2.47036 4.08985 2.426 4.19625 2.42586 4.30722V8.86492C2.42599 8.97591 2.47035 9.08231 2.54921 9.16079C2.62806 9.23927 2.73498 9.28342 2.84649 9.28355C3.23265 9.28343 13.1534 9.28355 13.1534 9.28355C13.265 9.28344 13.3719 9.23931 13.4508 9.16083C13.5296 9.08234 13.574 8.97593 13.5742 8.86492V4.30722C13.574 4.19623 13.5296 4.08983 13.4508 4.01136C13.3719 3.9329 13.2649 3.88878 13.1534 3.88869H11.5161V2.47522H14.873C14.9256 2.47527 14.9761 2.49609 15.0133 2.53312C15.0505 2.57014 15.0714 2.62034 15.0715 2.67272V10.0985Z" fill="currentColor" stroke="currentColor" stroke-width="0.45"/>
<path fill-rule="evenodd" clip-rule="evenodd" d="M9.29046 5.41854H5.97205C5.91523 5.41854 5.86074 5.39608 5.82057 5.3561C5.78039 5.31611 5.75782 5.26188 5.75781 5.20533V2.62024C5.75865 2.56424 5.78158 2.51081 5.82167 2.4715C5.86175 2.43219 5.91577 2.41016 5.97205 2.41016C6.02832 2.41015 6.08234 2.43219 6.12243 2.4715C6.16251 2.5108 6.18546 2.56423 6.18629 2.62023V4.9921H7.07152V3.49853C7.07261 3.4427 7.09566 3.38952 7.13572 3.35042C7.17578 3.31132 7.22965 3.28942 7.28575 3.28942C7.34186 3.28941 7.39573 3.31132 7.43579 3.35041C7.47585 3.38951 7.4989 3.44268 7.5 3.49851V4.99209L7.8683 4.99209H8.35463V4.46885C8.35569 4.413 8.37873 4.35979 8.41879 4.32067C8.45885 4.28155 8.51273 4.25963 8.56886 4.25963C8.62499 4.25963 8.67887 4.28154 8.71894 4.32066C8.759 4.35978 8.78204 4.41299 8.78311 4.46884V4.9921H9.29046C9.34728 4.9921 9.40177 5.01457 9.44195 5.05455C9.48213 5.09454 9.5047 5.14877 9.5047 5.20532C9.5047 5.26187 9.48213 5.31611 9.44195 5.35609C9.40177 5.39608 9.34728 5.41854 9.29046 5.41854Z" fill="currentColor" stroke="currentColor" stroke-width="0.2"/>
<path d="M7.76229 1.84232C7.75228 1.85198 7.9227 3.003 7.91926 3.01442C7.92791 3.06955 7.95794 3.11911 8.0029 3.15246C8.04785 3.18581 8.10415 3.20028 8.15971 3.19279C8.21527 3.18529 8.26566 3.15641 8.30007 3.11236C8.33448 3.0683 8.35017 3.01258 8.34376 2.95714L8.27104 2.42388L9.73579 3.88167C9.75569 3.90146 9.7793 3.91717 9.80529 3.92788C9.83128 3.9386 9.85914 3.94411 9.88727 3.94411C9.9154 3.94411 9.94326 3.9386 9.96925 3.92789C9.99524 3.91717 10.0189 3.90147 10.0388 3.88167C10.0586 3.86187 10.0744 3.83837 10.0852 3.8125C10.096 3.78663 10.1015 3.75891 10.1015 3.73091C10.1015 3.70291 10.096 3.67519 10.0852 3.64932C10.0744 3.62345 10.0586 3.59995 10.0388 3.58015L8.57395 2.12232L9.10982 2.19464C9.16559 2.20118 9.22171 2.18566 9.2661 2.15143C9.3105 2.1172 9.33961 2.06699 9.34717 2.01161C9.35474 1.95624 9.34016 1.90011 9.30657 1.85533C9.27297 1.81054 9.22305 1.78067 9.16755 1.77215L8.00212 1.61484C7.97068 1.61104 7.93878 1.61421 7.90871 1.62413C7.87865 1.63406 7.85117 1.65048 7.82824 1.67223C7.80531 1.69398 7.78751 1.72051 7.7761 1.74992C7.7647 1.77933 7.75998 1.81088 7.76229 1.84232Z" fill="currentColor" stroke="currentColor" stroke-width="0.2"/>
<path d="M5.92954 6.8191H9.94093C9.98679 6.81798 10.0305 6.79491 10.0626 6.75486C10.0947 6.7148 10.1127 6.66095 10.1127 6.60486C10.1126 6.54877 10.0947 6.49492 10.0626 6.45486C10.0304 6.41481 9.98678 6.39174 9.94092 6.39062H5.92954C5.88368 6.39175 5.84001 6.41481 5.8079 6.45487C5.7758 6.49492 5.75781 6.54878 5.75781 6.60486C5.75781 6.66095 5.7758 6.71481 5.8079 6.75486C5.84001 6.79492 5.88368 6.81798 5.92954 6.8191Z" fill="currentColor" stroke="currentColor" stroke-width="0.2"/>
<path d="M5.92954 8.01051H9.94093C9.98679 8.00939 10.0305 7.98632 10.0626 7.94626C10.0947 7.90621 10.1127 7.85235 10.1127 7.79626C10.1126 7.74017 10.0947 7.68632 10.0626 7.64627C10.0304 7.60621 9.98678 7.58315 9.94092 7.58203H5.92954C5.88368 7.58315 5.84001 7.60622 5.8079 7.64627C5.7758 7.68633 5.75781 7.74018 5.75781 7.79627C5.75781 7.85236 5.7758 7.90621 5.8079 7.94627C5.84001 7.98632 5.88368 8.00939 5.92954 8.01051Z" fill="currentColor" stroke="currentColor" stroke-width="0.2"/>
</svg>

<svg xmlns="http://www.w3.org/2000/svg" width="16" height="14" fill="none"><path fill="currentColor" stroke="currentColor" stroke-width=".45" d="M14.873 2.049h-3.357V1.27a.852.852 0 0 0-.857-.853H5.341a.86.86 0 0 0-.857.853v.778H1.127a.63.63 0 0 0-.627.624v7.425a.623.623 0 0 0 .627.625H6.96V12.3l-1.638.642a.214.214 0 0 0-.121.276.214.214 0 0 0 .278.12l2.146-.84c.364-.165.775-.004 1.116.144.003 0 1.832.712 1.859.712a.215.215 0 0 0 .207-.174.213.213 0 0 0-.129-.238L9.04 12.3v-1.577h5.833a.63.63 0 0 0 .627-.625V2.673a.623.623 0 0 0-.627-.624Zm-3.357 2.264 1.63-.006.007 4.55h-1.637V4.313ZM4.912 1.271a.426.426 0 0 1 .429-.427h5.318a.43.43 0 0 1 .429.427v7.586H4.912V1.271ZM2.854 8.865l-.008-4.55h1.638V8.86l-1.63.006Zm5.757 3.268a1.494 1.494 0 0 0-1.222 0v-1.41H8.61v1.41Zm6.46-2.034a.197.197 0 0 1-.198.197H1.127a.199.199 0 0 1-.199-.197V2.672a.197.197 0 0 1 .199-.198h3.357V3.89H2.846a.422.422 0 0 0-.42.418v4.558a.418.418 0 0 0 .42.419h10.307a.422.422 0 0 0 .421-.42V4.308a.419.419 0 0 0-.42-.418h-1.638V2.475h3.357a.2.2 0 0 1 .199.198v7.425Z"/><path fill="currentColor" fill-rule="evenodd" stroke="currentColor" stroke-width=".2" d="M9.29 5.419H5.972a.215.215 0 0 1-.214-.214V2.62a.213.213 0 0 1 .214-.21.215.215 0 0 1 .214.21v2.372h.886V3.5a.213.213 0 0 1 .214-.21.215.215 0 0 1 .214.21v1.493h.855V4.47a.213.213 0 0 1 .214-.21.215.215 0 0 1 .214.21v.523h.507a.215.215 0 0 1 .215.213.213.213 0 0 1-.215.214Z" clip-rule="evenodd"/><path fill="currentColor" stroke="currentColor" stroke-width=".2" d="M7.762 1.842c-.01.01.16 1.161.157 1.172a.213.213 0 0 0 .24.179.214.214 0 0 0 .185-.236l-.073-.533 1.465 1.458a.214.214 0 0 0 .35-.233.215.215 0 0 0-.047-.069L8.574 2.122l.536.073a.215.215 0 0 0 .237-.183.212.212 0 0 0-.18-.24l-1.165-.157a.216.216 0 0 0-.226.135.213.213 0 0 0-.014.092ZM5.93 6.82h4.01a.162.162 0 0 0 .123-.065.241.241 0 0 0 .05-.15.242.242 0 0 0-.05-.15.162.162 0 0 0-.122-.064H5.93a.162.162 0 0 0-.122.064.241.241 0 0 0-.05.15c0 .056.018.11.05.15.032.04.076.063.122.064ZM5.93 8.01h4.01a.162.162 0 0 0 .123-.064.241.241 0 0 0 .05-.15.242.242 0 0 0-.05-.15.162.162 0 0 0-.122-.064H5.93a.162.162 0 0 0-.122.064.241.241 0 0 0-.05.15c0 .056.018.11.05.15.032.04.076.063.122.065Z"/></svg>
